X: 29646
T: Northern Lights Of Old Aberdeen
R: waltz
M: 3/4
K: Dmajor
A|"D"AFG "F#m"A2 A|"G"dcB "D"A3|"Em"GAG "A7"F2 E|"D"A3 -A2 A|
"D"A2 "D7"F "F#m"A2 A|"G"dcB "D"A3|"Em"GAG "A7"F2 E|"D"D3 -D2 A|
"G"BGB dcB|"D"A3 "D7"A2 A/A/|"G"BGB "G"dcB|"F#m"c3 -c2 A|
"D"AAF "F#m"A2 A|"G"dcB "D"A3|"Em"GAG "A7"FFE|"D"D3 -D2 "A7"A||
"D"D2 D "Bm"F2 F|"Em"ED"A7"E "D"D2 "D7"A|"G"B2 B "A7"GAB|"D"A3 -A2 A|
"G"B2 B "Em"G2 "A7"B|"D"A2 F "Bm"E2 D|"E7"E2 E F2 D|"A7"A3 -A2 A|
"D"D2 D "Bm"F2 F|"Em"ED"A7"E "D"D2 A|"G"B2 B "G"GAB|"D"A3 - A2 A|
"G"B2 G "Ddim"d2 B|"D"A2 F "Bm"d2 d|"D"d6|d6||

